X:1
T:[ID 2-77]
T:[ID 2-77]
T:Bezeichnung standardisiert: Mourqui Mourqui
T:Urheber unbekannt Datum in der hier transkribierten schriftlichen Quelle: 1767
C:Urheber unbekannt
C:Datum in der hier transkribierten schriftlichen Quelle: 1767
L:1/8
M:4/4
K:A
V:1 treble 
V:1
 AB | c2 A2 E2 d2 | c2 A2 E2 c2 | Acea Acea | A2 A2 E2 c2 | Acea Acea | c2 A2 E2 A2 | GGGG AAAA | %8
 BBBB AAAA | GGGG AAAA | BBBB A2 AG | ABcd efed |{d} c4 z2 :: AB | c2 A2 E2 c2 | c2 A2 E2 fe | %16
 d2 e2 fedc | e2 BA G2 e2 | ^dddd eeee | ffff eeee | dddd eeee | ffff e2 ed | efga b2 ba | %23
{a} g6!D.C.! || %24

